public/images/hashed/055d257ef3005ce41b63b35f42c6f383.svg

<svg xmlns="http://www.w3.org/2000/svg" width="80" height="80"><defs><linearGradient id="a" x1="0%" x2="100%" y1="100%" y2="0%"><stop offset="0%" stop-color="#C8511B"/><stop offset="100%" stop-color="#F90"/></linearGradient></defs><g fill="none" fill-rule="evenodd"><path fill="url(#a)" d="M0 0h80v80H0z"/><path fill="#FFF" d="M52 56.523v-4.846l3-1.2v4.846l-3 1.2Zm-5-6.046 3 1.2v4.846l-3-1.2v-4.846Zm-6 13.046v-4.846l3-1.2v4.846l-3 1.2Zm-5-6.046 3 1.2v4.846l-3-1.2v-4.846Zm-6-.954v-4.846l3-1.2v4.846l-3 1.2Zm-5-6.046 3 1.2v4.846l-3-1.2v-4.846Zm4-2.4 2.308.923-2.308.923L26.692 49 29 48.077Zm11 7 2.308.923-2.308.923L37.692 56 40 55.077Zm11-7 2.308.923-2.308.923L48.692 49 51 48.077Zm5.371-.006-5-2a1.011 1.011 0 0 0-.742 0l-5 2c-.38.153-.629.52-.629.929v5.923l-4.629-1.852a1.011 1.011 0 0 0-.742 0L35 54.923V49c0-.409-.249-.776-.629-.929l-5-2a1.011 1.011 0 0 0-.742 0l-5 2c-.38.153-.629.52-.629.929v7c0 .409.249.776.629.929l5 2a1.01 1.01 0 0 0 .742 0L34 57.077V63c0 .409.249.776.629.929l5 2a1.01 1.01 0 0 0 .742 0l5-2c.38-.153.629-.52.629-.929v-5.923l4.629 1.852a1.01 1.01 0 0 0 .742 0l5-2c.38-.153.629-.52.629-.929v-7c0-.409-.249-.776-.629-.929ZM65 35.938c0 5.845-12.881 9-25 9s-25-3.155-25-9c0-2.791 3.095-5.248 8.715-6.919l.57 1.917C19.791 32.272 17 34.189 17 35.938c0 3.311 9.445 7 23 7s23-3.689 23-7c0-1.749-2.791-3.666-7.285-5.002l.57-1.917C61.905 30.69 65 33.147 65 35.938ZM40 17.071 50.214 21 40 24.929 29.786 21 40 17.071Zm10.58 19.771c-1.886.844-5.052 1.827-9.58 1.959V26.687l11-4.23v12.191c0 .951-.556 1.812-1.42 2.194ZM28 34.648V22.457l11 4.23v12.114c-4.528-.132-7.694-1.115-9.584-1.961A2.393 2.393 0 0 1 28 34.648Zm.604 4.019c2.201.985 5.965 2.16 11.396 2.16 5.431 0 9.195-1.175 11.393-2.158A4.394 4.394 0 0 0 54 34.648V21c0-.414-.255-.785-.641-.934l-13-5a1.01 1.01 0 0 0-.718 0l-13 5c-.386.149-.641.52-.641.934v13.648a4.391 4.391 0 0 0 2.604 4.019Z"/></g></svg>

<?xml version="1.0" encoding="UTF-8"?>
<svg width="80px" height="80px" viewBox="0 0 80 80" version="1.1" xmlns="http://www.w3.org/2000/svg" xmlns:xlink="http://www.w3.org/1999/xlink">
    <!-- Generator: Sketch 64 (93537) - https://sketch.com -->
    <title>Icon-Architecture/64/Arch_AWS-Fargate_64</title>
    <desc>Created with Sketch.</desc>
    <defs>
        <linearGradient x1="0%" y1="100%" x2="100%" y2="0%" id="linearGradient-1">
            <stop stop-color="#C8511B" offset="0%"></stop>
            <stop stop-color="#FF9900" offset="100%"></stop>
        </linearGradient>
    </defs>
    <g id="Icon-Architecture/64/Arch_AWS-Fargate_64" stroke="none" stroke-width="1" fill="none" fill-rule="evenodd">
        <g id="Icon-Architecture-BG/64/Containers" fill="url(#linearGradient-1)">
            <rect id="Rectangle" x="0" y="0" width="80" height="80"></rect>
        </g>
        <path d="M52,56.523 L52,51.677 L55,50.477 L55,55.323 L52,56.523 Z M47,50.477 L50,51.677 L50,56.523 L47,55.323 L47,50.477 Z M41,63.523 L41,58.677 L44,57.477 L44,62.323 L41,63.523 Z M36,57.477 L39,58.677 L39,63.523 L36,62.323 L36,57.477 Z M30,56.523 L30,51.677 L33,50.477 L33,55.323 L30,56.523 Z M25,50.477 L28,51.677 L28,56.523 L25,55.323 L25,50.477 Z M29,48.077 L31.308,49 L29,49.923 L26.692,49 L29,48.077 Z M40,55.077 L42.308,56 L40,56.923 L37.692,56 L40,55.077 Z M51,48.077 L53.308,49 L51,49.923 L48.692,49 L51,48.077 Z M56.371,48.071 L51.371,46.071 C51.133,45.977 50.867,45.977 50.629,46.071 L45.629,48.071 C45.249,48.224 45,48.591 45,49 L45,54.923 L40.371,53.071 C40.133,52.977 39.867,52.977 39.629,53.071 L35,54.923 L35,49 C35,48.591 34.751,48.224 34.371,48.071 L29.371,46.071 C29.133,45.977 28.867,45.977 28.629,46.071 L23.629,48.071 C23.249,48.224 23,48.591 23,49 L23,56 C23,56.409 23.249,56.776 23.629,56.929 L28.629,58.929 C28.748,58.976 28.874,59 29,59 C29.126,59 29.252,58.976 29.371,58.929 L34,57.077 L34,63 C34,63.409 34.249,63.776 34.629,63.929 L39.629,65.929 C39.748,65.976 39.874,66 40,66 C40.126,66 40.252,65.976 40.371,65.929 L45.371,63.929 C45.751,63.776 46,63.409 46,63 L46,57.077 L50.629,58.929 C50.748,58.976 50.874,59 51,59 C51.126,59 51.252,58.976 51.371,58.929 L56.371,56.929 C56.751,56.776 57,56.409 57,56 L57,49 C57,48.591 56.751,48.224 56.371,48.071 L56.371,48.071 Z M65,35.938 C65,41.783 52.119,44.938 40,44.938 C27.881,44.938 15,41.783 15,35.938 C15,33.147 18.095,30.69 23.715,29.019 L24.285,30.936 C19.791,32.272 17,34.189 17,35.938 C17,39.249 26.445,42.938 40,42.938 C53.555,42.938 63,39.249 63,35.938 C63,34.189 60.209,32.272 55.715,30.936 L56.285,29.019 C61.905,30.69 65,33.147 65,35.938 L65,35.938 Z M40,17.071 L50.214,21 L40,24.929 L29.786,21 L40,17.071 Z M50.58,36.842 C48.694,37.686 45.528,38.669 41,38.801 L41,26.687 L52,22.457 L52,34.648 C52,35.599 51.444,36.46 50.58,36.842 L50.58,36.842 Z M28,34.648 L28,22.457 L39,26.687 L39,38.801 C34.472,38.669 31.306,37.686 29.416,36.84 C28.556,36.46 28,35.599 28,34.648 L28,34.648 Z M28.604,38.667 C30.805,39.652 34.569,40.827 40,40.827 C45.431,40.827 49.195,39.652 51.393,38.669 C52.977,37.968 54,36.39 54,34.648 L54,21 C54,20.586 53.745,20.215 53.359,20.066 L40.359,15.066 C40.127,14.978 39.873,14.978 39.641,15.066 L26.641,20.066 C26.255,20.215 26,20.586 26,21 L26,34.648 C26,36.39 27.023,37.968 28.604,38.667 L28.604,38.667 Z" id="AWS-Fargate_Icon_64_Squid" fill="#FFFFFF"></path>
    </g>
</svg>
